Numix-Light/16/status/indicator-keyboard-Nl-3.svg

<?xml version="1.0" encoding="UTF-8" standalone="no"?>
<svg
   xmlns:dc="http://purl.org/dc/elements/1.1/"
   xmlns:cc="http://creativecommons.org/ns#"
   xmlns:rdf="http://www.w3.org/1999/02/22-rdf-syntax-ns#"
   xmlns:svg="http://www.w3.org/2000/svg"
   xmlns="http://www.w3.org/2000/svg"
   xmlns:sodipodi="http://sodipodi.sourceforge.net/DTD/sodipodi-0.dtd"
   xmlns:inkscape="http://www.inkscape.org/namespaces/inkscape"
   viewBox="0 0 16 16"
   id="svg2"
   version="1.1"
   inkscape:version="0.91 r13725"
   sodipodi:docname="indicator-keyboard-Nl-3.svg">
  <metadata
     id="metadata14">
    <rdf:RDF>
      <cc:Work
         rdf:about="">
        <dc:format>image/svg+xml</dc:format>
        <dc:type
           rdf:resource="http://purl.org/dc/dcmitype/StillImage" />
      </cc:Work>
    </rdf:RDF>
  </metadata>
  <defs
     id="defs12" />
  <sodipodi:namedview
     pagecolor="#ffffff"
     bordercolor="#666666"
     borderopacity="1"
     objecttolerance="10"
     gridtolerance="10"
     guidetolerance="10"
     inkscape:pageopacity="0"
     inkscape:pageshadow="2"
     inkscape:window-width="640"
     inkscape:window-height="480"
     id="namedview10"
     showgrid="false"
     inkscape:zoom="14.75"
     inkscape:cx="8"
     inkscape:cy="8"
     inkscape:window-x="65"
     inkscape:window-y="24"
     inkscape:window-maximized="0"
     inkscape:current-layer="svg2" />
  <path
     style="fill:#353535;fill-opacity:1"
     d="M 1.5996094 0 C 0.71320937 2.9605947e-16 0 0.71320937 0 1.5996094 L 0 14.400391 C 2.9605947e-16 15.286791 0.71320937 16 1.5996094 16 L 14.400391 16 C 15.286791 16 16 15.286791 16 14.400391 L 16 1.5996094 C 16 0.71320937 15.286791 0 14.400391 0 L 1.5996094 0 z M 9.5742188 4.1113281 L 9.5742188 9.9628906 C 9.5742188 10.106891 9.585375 10.2225 9.609375 10.3125 C 9.639375 10.3965 9.6823281 10.465531 9.7363281 10.519531 C 9.7903281 10.567531 9.8593594 10.604906 9.9433594 10.628906 C 10.03336 10.652906 10.137813 10.673406 10.257812 10.691406 L 10.177734 11.177734 C 9.9797342 11.171734 9.8042969 11.143703 9.6542969 11.095703 C 9.5102969 11.053703 9.3891094 10.988438 9.2871094 10.898438 C 9.1911094 10.802437 9.1145469 10.681109 9.0605469 10.537109 C 9.0125469 10.387109 8.9882813 10.202469 8.9882812 9.9804688 L 8.9882812 4.2207031 L 9.5742188 4.1113281 z M 2.6542969 4.859375 L 3.1386719 4.859375 C 3.4446719 5.201375 3.7730937 5.596875 4.1210938 6.046875 C 4.4750937 6.490875 4.82025 6.9460625 5.15625 7.4140625 C 5.49225 7.8760625 5.8037969 8.3294375 6.0917969 8.7734375 C 6.3857969 9.2174375 6.6245469 9.6055469 6.8105469 9.9355469 L 6.8105469 4.859375 L 7.4140625 4.859375 L 7.4140625 11.095703 L 6.9003906 11.095703 C 6.7863906 10.885703 6.6409375 10.639422 6.4609375 10.357422 C 6.2869375 10.075422 6.0947656 9.7750313 5.8847656 9.4570312 C 5.6747656 9.1330313 5.45275 8.80475 5.21875 8.46875 C 4.98475 8.12675 4.749625 7.7965156 4.515625 7.4785156 C 4.287625 7.1545156 4.0637969 6.8503594 3.8417969 6.5683594 C 3.6257969 6.2863594 3.4298594 6.0438437 3.2558594 5.8398438 L 3.2558594 11.095703 L 2.6542969 11.095703 L 2.6542969 4.859375 z M 11.978516 8.7539062 C 12.181316 8.7539062 12.353747 8.7793781 12.498047 8.8300781 C 12.646247 8.8807781 12.769688 8.953275 12.867188 9.046875 C 12.964687 9.136575 13.037184 9.2463 13.083984 9.375 C 13.130784 9.4997999 13.154297 9.6350031 13.154297 9.7832031 C 13.154297 10.021103 13.089638 10.217041 12.960938 10.369141 C 12.836137 10.517341 12.673509 10.625106 12.474609 10.691406 C 12.583809 10.718706 12.689616 10.759859 12.791016 10.818359 C 12.896316 10.872959 12.990366 10.945456 13.072266 11.035156 C 13.154166 11.120956 13.220784 11.226762 13.271484 11.351562 C 13.322184 11.476362 13.345703 11.623316 13.345703 11.791016 C 13.345703 11.962616 13.316306 12.119372 13.253906 12.263672 C 13.195406 12.407972 13.105275 12.535331 12.984375 12.644531 C 12.867375 12.749831 12.716503 12.834084 12.533203 12.896484 C 12.349903 12.954984 12.136325 12.984375 11.890625 12.984375 C 11.761925 12.984375 11.642403 12.974578 11.533203 12.955078 C 11.427903 12.939478 11.333853 12.919884 11.251953 12.896484 C 11.170053 12.873084 11.099516 12.849572 11.041016 12.826172 C 10.986416 12.802772 10.945269 12.783178 10.917969 12.767578 L 11.017578 12.427734 C 11.040978 12.443334 11.080166 12.462928 11.134766 12.486328 C 11.189366 12.509728 11.254025 12.533241 11.328125 12.556641 C 11.406125 12.576141 11.492337 12.593775 11.585938 12.609375 C 11.683437 12.624975 11.789244 12.632813 11.902344 12.632812 C 12.272844 12.632812 12.537366 12.556397 12.697266 12.404297 C 12.857166 12.248297 12.9375 12.040597 12.9375 11.779297 C 12.9375 11.607697 12.904191 11.464663 12.837891 11.351562 C 12.775491 11.238462 12.687319 11.148331 12.574219 11.082031 C 12.465019 11.011831 12.3357 10.962847 12.1875 10.935547 C 12.0432 10.904347 11.890363 10.888672 11.726562 10.888672 L 11.667969 10.888672 L 11.667969 10.574219 L 11.802734 10.574219 C 11.908034 10.574219 12.013847 10.564422 12.123047 10.544922 C 12.236147 10.521522 12.338034 10.480375 12.427734 10.421875 C 12.521334 10.363375 12.59775 10.285 12.65625 10.1875 C 12.71865 10.09 12.75 9.9646001 12.75 9.8125 C 12.75 9.6838 12.728447 9.5760281 12.685547 9.4863281 C 12.642647 9.3927281 12.583866 9.3182719 12.509766 9.2636719 C 12.439566 9.2090719 12.355313 9.1698844 12.257812 9.1464844 C 12.164212 9.1191844 12.066238 9.1054687 11.960938 9.1054688 C 11.750338 9.1054688 11.58575 9.1348594 11.46875 9.1933594 C 11.35175 9.2518594 11.255741 9.3067219 11.181641 9.3574219 L 11.017578 9.0585938 C 11.056578 9.0312937 11.105562 8.9999438 11.164062 8.9648438 C 11.226463 8.9297438 11.298959 8.8964344 11.380859 8.8652344 C 11.462759 8.8340344 11.552891 8.8085625 11.650391 8.7890625 C 11.751791 8.7656625 11.861516 8.7539062 11.978516 8.7539062 z "
     id="path4" />
</svg>

<svg xmlns="http://www.w3.org/2000/svg" viewBox="0 0 16 16">
 <path d="m 1.6 0 c -0.886 0 -1.6 0.713 -1.6 1.6 l 0 12.801 c 0 0.886 0.713 1.6 1.6 1.6 l 12.801 0 c 0.886 0 1.6 -0.713 1.6 -1.6 l 0 -12.801 c 0 -0.886 -0.713 -1.6 -1.6 -1.6 l -12.801 0 z m 7.975 4.111 l 0 5.852 c 0 0.144 0.011 0.26 0.035 0.35 c 0.03 0.084 0.073 0.153 0.127 0.207 c 0.054 0.048 0.123 0.085 0.207 0.109 c 0.09 0.024 0.194 0.044 0.314 0.063 l -0.08 0.486 c -0.198 -0.006 -0.373 -0.034 -0.523 -0.082 c -0.144 -0.042 -0.265 -0.107 -0.367 -0.197 c -0.096 -0.096 -0.173 -0.217 -0.227 -0.361 c -0.048 -0.15 -0.072 -0.335 -0.072 -0.557 l 0 -5.76 l 0.586 -0.109 z m -6.92 0.748 l 0.484 0 c 0.306 0.342 0.634 0.737 0.982 1.188 c 0.354 0.444 0.699 0.899 1.035 1.367 c 0.336 0.462 0.648 0.915 0.936 1.359 c 0.294 0.444 0.533 0.832 0.719 1.162 l 0 -5.076 l 0.604 0 l 0 6.236 l -0.514 0 c -0.114 -0.21 -0.259 -0.456 -0.439 -0.738 c -0.174 -0.282 -0.366 -0.582 -0.576 -0.9 c -0.21 -0.324 -0.432 -0.652 -0.666 -0.988 c -0.234 -0.342 -0.469 -0.672 -0.703 -0.99 c -0.228 -0.324 -0.452 -0.628 -0.674 -0.91 c -0.216 -0.282 -0.412 -0.525 -0.586 -0.729 l 0 5.256 l -0.602 0 l 0 -6.236 z m 9.324 3.895 c 0.203 0 0.375 0.025 0.52 0.076 c 0.148 0.051 0.272 0.123 0.369 0.217 c 0.097 0.09 0.17 0.199 0.217 0.328 c 0.047 0.125 0.07 0.26 0.07 0.408 c 0 0.238 -0.065 0.434 -0.193 0.586 c -0.125 0.148 -0.287 0.256 -0.486 0.322 c 0.109 0.027 0.215 0.068 0.316 0.127 c 0.105 0.055 0.199 0.127 0.281 0.217 c 0.082 0.086 0.149 0.192 0.199 0.316 c 0.051 0.125 0.074 0.272 0.074 0.439 c 0 0.172 -0.029 0.328 -0.092 0.473 c -0.059 0.144 -0.149 0.272 -0.27 0.381 c -0.117 0.105 -0.268 0.19 -0.451 0.252 c -0.183 0.059 -0.397 0.088 -0.643 0.088 c -0.129 0 -0.248 -0.01 -0.357 -0.029 c -0.105 -0.016 -0.199 -0.035 -0.281 -0.059 c -0.082 -0.023 -0.152 -0.047 -0.211 -0.07 c -0.055 -0.023 -0.096 -0.043 -0.123 -0.059 l 0.1 -0.34 c 0.023 0.016 0.063 0.035 0.117 0.059 c 0.055 0.023 0.119 0.047 0.193 0.07 c 0.078 0.019 0.164 0.037 0.258 0.053 c 0.097 0.016 0.203 0.023 0.316 0.023 c 0.37 0 0.635 -0.076 0.795 -0.229 c 0.16 -0.156 0.24 -0.364 0.24 -0.625 c 0 -0.172 -0.033 -0.315 -0.1 -0.428 c -0.062 -0.113 -0.151 -0.203 -0.264 -0.27 c -0.109 -0.07 -0.239 -0.119 -0.387 -0.146 c -0.144 -0.031 -0.297 -0.047 -0.461 -0.047 l -0.059 0 l 0 -0.314 l 0.135 0 c 0.105 0 0.211 -0.01 0.32 -0.029 c 0.113 -0.023 0.215 -0.065 0.305 -0.123 c 0.094 -0.059 0.17 -0.137 0.229 -0.234 c 0.062 -0.098 0.094 -0.223 0.094 -0.375 c 0 -0.129 -0.022 -0.236 -0.064 -0.326 c -0.043 -0.094 -0.102 -0.168 -0.176 -0.223 c -0.07 -0.055 -0.154 -0.094 -0.252 -0.117 c -0.094 -0.027 -0.192 -0.041 -0.297 -0.041 c -0.211 0 -0.375 0.029 -0.492 0.088 c -0.117 0.059 -0.213 0.113 -0.287 0.164 l -0.164 -0.299 c 0.039 -0.027 0.088 -0.059 0.146 -0.094 c 0.062 -0.035 0.135 -0.068 0.217 -0.1 c 0.082 -0.031 0.172 -0.057 0.27 -0.076 c 0.101 -0.023 0.211 -0.035 0.328 -0.035 z" style="fill:#353535;fill-opacity:1"/>
</svg>
